icons/svg/24x24/close/outline.svg

<svg xmlns="http://www.w3.org/2000/svg" width="24" height="24" viewBox="0 0 24 24">
  <path fill-rule="evenodd" d="M13.4141,12 L17.7071,7.707 C18.0981,7.316 18.0981,6.684 17.7071,6.293 C17.3161,5.902 16.6841,5.902 16.2931,6.293 L12.0001,10.586 L7.7071,6.293 C7.3161,5.902 6.6841,5.902 6.2931,6.293 C5.9021,6.684 5.9021,7.316 6.2931,7.707 L10.5861,12 L6.2931,16.293 C5.9021,16.684 5.9021,17.316 6.2931,17.707 C6.4881,17.902 6.7441,18 7.0001,18 C7.2561,18 7.5121,17.902 7.7071,17.707 L12.0001,13.414 L16.2931,17.707 C16.4881,17.902 16.7441,18 17.0001,18 C17.2561,18 17.5121,17.902 17.7071,17.707 C18.0981,17.316 18.0981,16.684 17.7071,16.293 L13.4141,12 Z"/>
</svg>

<svg width="24" height="24" fill="none" xmlns="http://www.w3.org/2000/svg">
  <path fill-rule="evenodd" clip-rule="evenodd" d="M13.414 12l4.293-4.293C17.901 7.513 18 7.254 18 7a.985.985 0 00-.293-.707.996.996 0 00-1.414 0L12 10.586 7.707 6.293a.997.997 0 00-1.414 0 .997.997 0 000 1.414L10.586 12l-4.293 4.293a.997.997 0 000 1.414.997.997 0 001.414 0L12 13.414l4.293 4.293a.997.997 0 001.414 0 1.003 1.003 0 000-1.414L13.414 12z" fill="#000"/>
</svg>
